icons/svg/crypto/rune.svg

<svg fill="none" height="32" viewBox="0 0 32 32" width="32" xmlns="http://www.w3.org/2000/svg" xmlns:xlink="http://www.w3.org/1999/xlink"><linearGradient id="a" gradientUnits="userSpaceOnUse" x1="0" x2="32" y1="32" y2="0"><stop offset="0" stop-color="#0cf"/><stop offset="1" stop-color="#3f9"/></linearGradient><clipPath id="b"><path d="m0 0h32v32h-32z"/></clipPath><g clip-path="url(#b)"><path d="m15.9998 31.3846c8.4967 0 15.3847-6.8879 15.3847-15.3846 0-8.49669-6.888-15.384613-15.3847-15.384613-8.49664 0-15.384566 6.887923-15.384566 15.384613 0 8.4967 6.887926 15.3846 15.384566 15.3846z" fill="#000b12"/><path d="m16 0c8.8366 0 16 7.16344 16 16 0 8.8366-7.1634 16-16 16-8.83656 0-16-7.1634-16-16 0-8.83656 7.16344-16 16-16zm0 1.23077c-8.15682 0-14.76923 6.61241-14.76923 14.76923 0 8.1568 6.61241 14.7692 14.76923 14.7692 8.1568 0 14.7692-6.6124 14.7692-14.7692 0-8.15682-6.6124-14.76923-14.7692-14.76923z" fill="url(#a)"/><path clip-rule="evenodd" d="m14.3822 23.7453h-2.0092v-15.99997h2.0092l5.1428 2.91107v2.1997l-1.8344 3.1519 2.9263 7.7373h-2.1401l-2.9045-7.8468 2.2494-3.9179-3.4395-1.948z" fill="#28f4ae" fill-rule="evenodd"/></g></svg>

<svg fill="none" height="32" width="32" xmlns="http://www.w3.org/2000/svg">
    <defs>
        <linearGradient gradientUnits="userSpaceOnUse" id="rune__b" x1="0" x2="32" y1="32" y2="0">
            <stop stop-color="#0CF" />
            <stop offset="1" stop-color="#3F9" />
        </linearGradient>
        <clipPath id="rune__a">
            <path d="M0 0h32v32H0z" fill="#fff" />
        </clipPath>
    </defs>
    <g clip-path="url(#rune__a)">
        <path d="M16 31.385c8.497 0 15.384-6.888 15.384-15.385S24.497.615 16 .615.615 7.503.615 16 7.503 31.385 16 31.385Z"
            fill="#000B12" />
        <path d="M16 0c8.837 0 16 7.163 16 16s-7.163 16-16 16S0 24.837 0 16 7.163 0 16 0Zm0 1.23C7.843 1.23 1.23 7.844 1.23 16S7.844 30.77 16 30.77 30.77 24.156 30.77 16 24.156 1.23 16 1.23Z"
            fill="url(#rune__b)" />
        <path clip-rule="evenodd" d="M14.382 23.745h-2.009v-16h2.01l5.142 2.911v2.2l-1.834 3.152 2.926 7.737h-2.14l-2.905-7.847 2.25-3.917-3.44-1.948v13.712Z"
            fill="#28F4AE"
            fill-rule="evenodd" />
    </g>
</svg>
